svg/Editing/clipboard-list-twotone.svg

<svg xmlns="http://www.w3.org/2000/svg" width="24" height="24" viewBox="0 0 24 24">
    <path d="M6 4H10V6H14V4H18V20H6V4Z" fill="currentColor" fill-opacity="0">
        <animate attributeName="fill-opacity" values="0;0.3" begin="1.6s" dur="0.15s" fill="freeze" />
    </path>
    <g fill="none" stroke="currentColor" stroke-linecap="round" stroke-linejoin="round">
        <g stroke-width="2">
            <path d="M12 3H19V21H5V3H12Z" stroke-dasharray="66" stroke-dashoffset="66">
                <animate attributeName="stroke-dashoffset" values="66;0" dur="0.6s" fill="freeze" />
            </path>
            <path d="M9 10H12" stroke-dasharray="5" stroke-dashoffset="5">
                <animate attributeName="stroke-dashoffset" values="5;0" begin="1s" dur="0.2s" fill="freeze" />
            </path>
            <path d="M9 13H14" stroke-dasharray="6" stroke-dashoffset="6">
                <animate attributeName="stroke-dashoffset" values="6;0" begin="1.2s" dur="0.2s" fill="freeze" />
            </path>
            <path d="M9 16H15" stroke-dasharray="7" stroke-dashoffset="7">
                <animate attributeName="stroke-dashoffset" values="7;0" begin="1.4s" dur="0.2s" fill="freeze" />
            </path>
        </g>
        <path d="M14.5 3.5V6.5H9.5V3.5" stroke-dasharray="12" stroke-dashoffset="12">
            <animate attributeName="stroke-dashoffset" values="12;0" begin="0.7s" dur="0.2s" fill="freeze" />
        </path>
    </g>
</svg>

<svg xmlns="http://www.w3.org/2000/svg" width="24" height="24" viewBox="0 0 24 24">
	<g fill="none" stroke="currentColor" stroke-width="2" stroke-linecap="round" stroke-linejoin="round">
		<path d="M12 3h7v18h-14v-18h7Z" stroke-dasharray="72" stroke-dashoffset="72">
			<animate attributeName="stroke-dashoffset" values="72;0" dur="0.6s" fill="freeze" />
		</path>
		<path d="M14.5 3.5v3h-5v-3" stroke-width="1" stroke-dasharray="12" stroke-dashoffset="12">
			<animate attributeName="stroke-dashoffset" values="12;0" begin="0.7s" dur="0.2s" fill="freeze" />
		</path>
		<path d="M9 10h3" stroke-dasharray="4" stroke-dashoffset="4">
			<animate attributeName="stroke-dashoffset" values="4;0" begin="0.9s" dur="0.2s" fill="freeze" />
		</path>
		<path d="M9 13h5" stroke-dasharray="8" stroke-dashoffset="8">
			<animate attributeName="stroke-dashoffset" values="8;0" begin="1.1s" dur="0.2s" fill="freeze" />
		</path>
		<path d="M9 16h6" stroke-dasharray="8" stroke-dashoffset="8">
			<animate attributeName="stroke-dashoffset" values="8;0" begin="1.3s" dur="0.2s" fill="freeze" />
		</path>
	</g>
	<path d="M6 4H10V6H14V4H18V20H6V4Z" fill="currentColor" fill-opacity="0">
		<animate attributeName="fill-opacity" values="0;0.3" begin="1.6s" dur="0.15s" fill="freeze" />
	</path>
</svg>
